{
  "type": "map",
  "version": "1.10",
  "tiledversion": "1.10.2",
  "orientation": "orthogonal",
  "renderorder": "right-down",
  "width": 32,
  "height": 18,
  "tilewidth": 16,
  "tileheight": 16,
  "infinite": false,
  "backgroundcolor": "#00aaff",
  "nextlayerid": 5,
  "nextobjectid": 13,
  "tilesets": [
    {
      "firstgid": 1,
      "source": "../tiles/sms_skylands_mapchips_16.tsj"
    }
  ],
  "layers": [
    {
      "name": "background",
      "type": "tilelayer",
      "visible": true,
      "opacity": 1,
      "x": 0,
      "y": 0,
      "width": 32,
      "height": 18,
      "data": [
        2,
        1,
        1,
        1,
        1,
        1,
        1,
        1,
        1,
        1,
        1,
        1,
        1,
        1,
        1,
        1,
        1,
        1,
        1,
        1,
        1,
        1,
        1,
        1,
        1,
        1,
        1,
        1,
        1,
        1,
        1,
        2,
        1,
        1,
        1,
        1,
        2,
        1,
        1,
        1,
        1,
        1,
        1,
        1,
        6,
        1,
        1,
        1,
        1,
        1,
        1,
        1,
        1,
        1,
        1,
        1,
        1,
        1,
        1,
        1,
        1,
        1,
        1,
        1,
        1,
        1,
        1,
        3,
        1,
        1,
        1,
        1,
        2,
        1,
        1,
        1,
        1,
        1,
        1,
        1,
        1,
        1,
        1,
        1,
        1,
        1,
        1,
        1,
        4,
        1,
        1,
        1,
        1,
        1,
        1,
        1,
        1,
        1,
        1,
        1,
        1,
        1,
        1,
        1,
        1,
        1,
        1,
        1,
        2,
        1,
        1,
        1,
        1,
        1,
        1,
        1,
        1,
        1,
        1,
        1,
        1,
        1,
        1,
        1,
        1,
        1,
        1,
        1,
        1,
        1,
        1,
        1,
        1,
        1,
        1,
        1,
        1,
        1,
        1,
        1,
        1,
        1,
        1,
        1,
        2,
        1,
        1,
        1,
        1,
        1,
        1,
        1,
        1,
        1,
        1,
        1,
        1,
        1,
        1,
        1,
        1,
        1,
        1,
        1,
        1,
        1,
        1,
        1,
        1,
        1,
        1,
        1,
        1,
        1,
        1,
        1,
        1,
        1,
        1,
        1,
        2,
        1,
        1,
        1,
        1,
        1,
        1,
        1,
        1,
        1,
        1,
        1,
        1,
        1,
        1,
        1,
        1,
        1,
        1,
        1,
        1,
        1,
        1,
        1,
        1,
        1,
        1,
        1,
        1,
        1,
        1,
        1,
        1,
        1,
        1,
        1,
        2,
        1,
        1,
        1,
        1,
        1,
        1,
        1,
        1,
        1,
        1,
        1,
        1,
        1,
        1,
        1,
        1,
        1,
        1,
        1,
        1,
        1,
        1,
        1,
        1,
        1,
        1,
        1,
        1,
        1,
        1,
        1,
        1,
        1,
        1,
        1,
        2,
        1,
        1,
        1,
        1,
        2,
        1,
        1,
        1,
        1,
        1,
        1,
        1,
        1,
        1,
        1,
        1,
        1,
        1,
        1,
        1,
        1,
        1,
        1,
        1,
        1,
        1,
        1,
        1,
        1,
        1,
        1,
        1,
        1,
        1,
        1,
        1,
        1,
        1,
        1,
        1,
        2,
        1,
        1,
        1,
        1,
        1,
        1,
        1,
        1,
        1,
        1,
        1,
        1,
        1,
        1,
        1,
        1,
        1,
        1,
        1,
        1,
        1,
        1,
        1,
        1,
        1,
        1,
        1,
        1,
        1,
        1,
        1,
        1,
        1,
        1,
        1,
        2,
        1,
        1,
        1,
        1,
        1,
        1,
        1,
        1,
        1,
        1,
        1,
        1,
        1,
        1,
        1,
        1,
        1,
        3,
        1,
        1,
        1,
        1,
        1,
        1,
        1,
        1,
        1,
        1,
        1,
        1,
        1,
        1,
        1,
        1,
        1,
        2,
        1,
        1,
        1,
        1,
        1,
        1,
        1,
        1,
        1,
        1,
        1,
        1,
        1,
        1,
        1,
        1,
        1,
        1,
        1,
        1,
        1,
        1,
        1,
        1,
        1,
        1,
        1,
        1,
        1,
        1,
        1,
        1,
        1,
        1,
        1,
        2,
        1,
        1,
        1,
        1,
        1,
        1,
        1,
        1,
        1,
        1,
        1,
        1,
        1,
        1,
        1,
        1,
        1,
        1,
        1,
        1,
        1,
        1,
        1,
        1,
        1,
        1,
        1,
        1,
        1,
        1,
        1,
        1,
        1,
        3,
        1,
        2,
        1,
        1,
        1,
        1,
        1,
        1,
        1,
        1,
        1,
        1,
        1,
        1,
        1,
        1,
        1,
        5,
        1,
        1,
        1,
        1,
        1,
        1,
        1,
        1,
        1,
        1,
        1,
        1,
        1,
        1,
        1,
        1,
        1,
        1,
        1,
        2,
        1,
        1,
        1,
        1,
        1,
        1,
        1,
        1,
        1,
        1,
        1,
        1,
        1,
        1,
        1,
        1,
        1,
        1,
        1,
        1,
        1,
        1,
        1,
        1,
        1,
        1,
        1,
        1,
        1,
        1,
        1,
        1,
        1,
        1,
        1,
        2,
        1,
        1,
        1,
        1,
        2,
        1,
        1,
        1,
        1,
        1,
        1,
        1,
        1,
        1,
        1,
        1,
        1,
        1,
        1,
        1,
        1,
        1,
        1,
        1,
        1,
        1,
        1,
        1,
        1,
        1,
        1,
        1,
        1,
        1,
        1,
        1,
        1,
        1,
        1,
        1,
        2,
        1,
        1,
        1,
        1,
        1,
        1,
        1,
        1,
        1,
        1,
        1,
        1,
        1,
        1,
        1,
        1,
        1,
        1,
        1,
        1,
        1,
        1,
        1,
        1,
        1
      ]
    },
    {
      "name": "terrain",
      "type": "tilelayer",
      "visible": true,
      "opacity": 1,
      "x": 0,
      "y": 0,
      "width": 32,
      "height": 18,
      "data": [
        0,
        0,
        0,
        0,
        0,
        0,
        0,
        0,
        0,
        0,
        0,
        0,
        0,
        0,
        0,
        0,
        0,
        0,
        0,
        0,
        0,
        0,
        0,
        0,
        0,
        0,
        0,
        0,
        0,
        0,
        0,
        0,
        0,
        0,
        0,
        0,
        0,
        0,
        0,
        0,
        0,
        0,
        0,
        0,
        0,
        0,
        0,
        0,
        0,
        0,
        0,
        0,
        0,
        0,
        0,
        0,
        0,
        0,
        0,
        0,
        0,
        0,
        0,
        0,
        0,
        0,
        0,
        0,
        0,
        0,
        0,
        0,
        0,
        0,
        0,
        0,
        21,
        0,
        0,
        0,
        0,
        0,
        0,
        0,
        0,
        0,
        0,
        0,
        0,
        0,
        0,
        0,
        0,
        0,
        0,
        0,
        0,
        0,
        0,
        0,
        0,
        0,
        21,
        18,
        18,
        18,
        18,
        18,
        30,
        18,
        18,
        18,
        18,
        18,
        22,
        0,
        0,
        0,
        0,
        0,
        0,
        0,
        0,
        0,
        0,
        0,
        0,
        0,
        0,
        0,
        0,
        0,
        21,
        18,
        7,
        7,
        30,
        29,
        29,
        30,
        29,
        29,
        30,
        7,
        8,
        7,
        7,
        18,
        22,
        0,
        0,
        0,
        0,
        0,
        0,
        0,
        0,
        0,
        0,
        0,
        0,
        0,
        21,
        18,
        7,
        7,
        7,
        8,
        29,
        29,
        30,
        29,
        29,
        30,
        29,
        8,
        7,
        7,
        11,
        8,
        77,
        18,
        18,
        22,
        0,
        0,
        0,
        0,
        0,
        0,
        0,
        0,
        0,
        21,
        8,
        7,
        7,
        7,
        8,
        7,
        29,
        30,
        29,
        29,
        30,
        29,
        29,
        7,
        7,
        7,
        8,
        7,
        38,
        77,
        38,
        77,
        18,
        18,
        22,
        0,
        0,
        0,
        0,
        0,
        0,
        19,
        7,
        7,
        7,
        8,
        7,
        7,
        30,
        29,
        29,
        30,
        29,
        29,
        30,
        7,
        7,
        8,
        7,
        7,
        77,
        38,
        77,
        38,
        77,
        8,
        7,
        18,
        22,
        0,
        0,
        0,
        21,
        7,
        7,
        12,
        13,
        12,
        13,
        12,
        8,
        10,
        7,
        7,
        8,
        7,
        7,
        7,
        8,
        7,
        7,
        7,
        38,
        77,
        38,
        77,
        38,
        11,
        10,
        7,
        20,
        0,
        0,
        0,
        0,
        19,
        11,
        13,
        12,
        13,
        12,
        13,
        10,
        7,
        7,
        8,
        7,
        7,
        7,
        8,
        7,
        7,
        7,
        8,
        7,
        11,
        7,
        8,
        7,
        10,
        7,
        8,
        7,
        22,
        0,
        0,
        21,
        7,
        8,
        12,
        13,
        12,
        13,
        12,
        7,
        7,
        8,
        7,
        7,
        7,
        8,
        7,
        7,
        11,
        8,
        7,
        7,
        7,
        8,
        7,
        10,
        7,
        8,
        7,
        20,
        0,
        0,
        0,
        0,
        23,
        7,
        13,
        12,
        13,
        12,
        13,
        7,
        8,
        7,
        7,
        7,
        11,
        7,
        7,
        7,
        8,
        7,
        7,
        7,
        8,
        7,
        10,
        7,
        8,
        7,
        7,
        7,
        18,
        22,
        0,
        0,
        0,
        23,
        17,
        17,
        10,
        7,
        7,
        8,
        11,
        7,
        7,
        8,
        7,
        7,
        7,
        8,
        7,
        7,
        17,
        17,
        17,
        17,
        7,
        8,
        7,
        7,
        7,
        11,
        7,
        20,
        0,
        0,
        0,
        0,
        0,
        0,
        23,
        17,
        17,
        17,
        17,
        17,
        17,
        7,
        17,
        17,
        17,
        17,
        17,
        24,
        0,
        0,
        0,
        0,
        19,
        11,
        7,
        7,
        8,
        7,
        7,
        20,
        0,
        0,
        0,
        0,
        0,
        0,
        0,
        0,
        0,
        0,
        0,
        0,
        0,
        23,
        0,
        0,
        0,
        0,
        0,
        0,
        0,
        0,
        0,
        0,
        23,
        7,
        7,
        8,
        7,
        7,
        7,
        8,
        22,
        0,
        0,
        0,
        0,
        0,
        0,
        0,
        0,
        0,
        0,
        0,
        0,
        0,
        0,
        0,
        0,
        0,
        0,
        0,
        0,
        0,
        0,
        0,
        0,
        23,
        17,
        17,
        7,
        17,
        17,
        24,
        0,
        0,
        0,
        0,
        0,
        0,
        0,
        0,
        0,
        0,
        0,
        0,
        0,
        0,
        0,
        0,
        0,
        0,
        0,
        0,
        0,
        0,
        0,
        0,
        0,
        0,
        0,
        0,
        23,
        0,
        0,
        0,
        0,
        0,
        0,
        0,
        0,
        0,
        0,
        0,
        0,
        0,
        0,
        0,
        0,
        0,
        0,
        0,
        0,
        0,
        0,
        0,
        0,
        0,
        0,
        0,
        0,
        0,
        0,
        0,
        0,
        0,
        0,
        0,
        0
      ]
    },
    {
      "name": "overlay",
      "type": "tilelayer",
      "visible": true,
      "opacity": 1,
      "x": 0,
      "y": 0,
      "width": 32,
      "height": 18,
      "data": [
        0,
        0,
        0,
        0,
        0,
        0,
        0,
        0,
        0,
        0,
        0,
        0,
        0,
        0,
        0,
        0,
        0,
        0,
        0,
        0,
        0,
        0,
        0,
        0,
        0,
        0,
        0,
        0,
        0,
        0,
        0,
        0,
        0,
        0,
        0,
        0,
        0,
        0,
        0,
        0,
        0,
        0,
        0,
        0,
        0,
        0,
        0,
        0,
        0,
        0,
        0,
        0,
        0,
        0,
        0,
        0,
        0,
        0,
        0,
        0,
        0,
        0,
        0,
        0,
        0,
        0,
        0,
        0,
        0,
        0,
        0,
        0,
        0,
        0,
        0,
        0,
        0,
        0,
        0,
        0,
        0,
        0,
        0,
        0,
        0,
        0,
        0,
        0,
        0,
        0,
        0,
        0,
        0,
        0,
        0,
        0,
        0,
        0,
        0,
        0,
        0,
        0,
        0,
        0,
        0,
        0,
        0,
        0,
        0,
        0,
        0,
        0,
        0,
        0,
        0,
        0,
        0,
        0,
        0,
        0,
        0,
        0,
        0,
        0,
        0,
        0,
        0,
        0,
        0,
        0,
        0,
        0,
        0,
        0,
        0,
        0,
        0,
        0,
        0,
        0,
        0,
        0,
        0,
        0,
        56,
        0,
        0,
        0,
        0,
        0,
        0,
        0,
        0,
        0,
        0,
        0,
        0,
        0,
        0,
        0,
        0,
        0,
        0,
        0,
        0,
        0,
        0,
        0,
        0,
        0,
        0,
        0,
        0,
        0,
        0,
        0,
        45,
        0,
        0,
        0,
        0,
        0,
        0,
        0,
        0,
        0,
        0,
        0,
        0,
        0,
        0,
        0,
        0,
        0,
        0,
        0,
        56,
        0,
        0,
        0,
        0,
        0,
        0,
        0,
        0,
        0,
        48,
        44,
        47,
        0,
        0,
        0,
        0,
        0,
        48,
        44,
        57,
        0,
        0,
        0,
        0,
        0,
        0,
        0,
        0,
        0,
        0,
        0,
        46,
        44,
        49,
        0,
        0,
        0,
        0,
        0,
        0,
        0,
        45,
        0,
        0,
        0,
        0,
        0,
        0,
        0,
        45,
        0,
        0,
        0,
        0,
        0,
        0,
        0,
        0,
        0,
        0,
        0,
        0,
        0,
        0,
        0,
        45,
        0,
        0,
        0,
        0,
        0,
        0,
        0,
        53,
        44,
        44,
        44,
        44,
        44,
        44,
        44,
        52,
        49,
        0,
        0,
        0,
        0,
        0,
        0,
        0,
        0,
        0,
        0,
        0,
        0,
        0,
        0,
        53,
        51,
        51,
        44,
        44,
        44,
        44,
        44,
        47,
        0,
        0,
        0,
        0,
        0,
        0,
        0,
        0,
        46,
        51,
        44,
        49,
        0,
        0,
        0,
        0,
        0,
        0,
        0,
        0,
        58,
        44,
        44,
        52,
        52,
        47,
        0,
        0,
        0,
        0,
        0,
        0,
        0,
        0,
        0,
        0,
        0,
        0,
        0,
        0,
        0,
        45,
        0,
        46,
        44,
        49,
        0,
        0,
        0,
        0,
        0,
        0,
        0,
        0,
        0,
        0,
        0,
        0,
        0,
        0,
        0,
        0,
        0,
        0,
        0,
        0,
        0,
        0,
        0,
        0,
        0,
        0,
        0,
        45,
        0,
        0,
        0,
        45,
        0,
        0,
        0,
        0,
        0,
        0,
        0,
        0,
        0,
        0,
        0,
        0,
        0,
        0,
        0,
        0,
        0,
        0,
        0,
        0,
        0,
        0,
        0,
        0,
        0,
        0,
        0,
        46,
        44,
        44,
        51,
        54,
        0,
        0,
        0,
        0,
        0,
        0,
        0,
        0,
        0,
        0,
        0,
        0,
        0,
        0,
        0,
        0,
        0,
        0,
        0,
        0,
        0,
        0,
        0,
        0,
        0,
        0,
        0,
        0,
        0,
        0,
        61,
        61,
        61,
        0,
        0,
        0,
        0,
        0,
        0,
        0,
        0,
        0,
        0,
        0,
        0,
        0,
        0,
        0,
        0,
        0,
        0,
        0,
        0,
        0,
        0,
        0,
        0,
        0,
        0,
        0,
        0,
        0,
        55,
        0,
        0,
        0,
        0,
        0,
        0,
        0,
        0,
        0,
        0,
        0,
        0,
        0,
        0,
        0,
        0,
        0,
        0,
        0,
        0,
        0,
        0,
        0,
        0,
        0,
        0,
        0,
        0,
        0,
        0,
        0,
        0,
        0,
        0,
        0,
        0,
        0,
        0,
        0,
        0,
        0,
        0,
        0,
        0,
        0,
        0,
        0,
        0,
        0,
        0,
        0,
        0,
        0,
        0,
        0,
        0,
        0,
        0,
        0,
        0,
        0,
        0,
        0,
        0,
        0,
        0,
        0,
        0,
        0,
        0,
        0,
        0,
        0,
        0,
        0,
        0,
        0,
        0,
        0,
        0,
        0,
        0,
        0,
        0,
        0,
        0,
        0,
        0,
        0,
        0,
        0,
        0,
        0,
        0,
        0,
        0,
        0,
        0,
        0,
        0
      ]
    },
    {
      "name": "objects",
      "type": "objectgroup",
      "visible": true,
      "opacity": 1,
      "x": 0,
      "y": 0,
      "objects": [
        {
          "id": 1,
          "name": "North Watch Castle",
          "type": "castle_gray_red_flag",
          "x": 64,
          "y": 96,
          "width": 0,
          "height": 0,
          "rotation": 0,
          "visible": true,
          "properties": [
            {
              "name": "sprite_id",
              "type": "int",
              "value": 0
            },
            {
              "name": "team",
              "type": "string",
              "value": "red"
            }
          ]
        },
        {
          "id": 2,
          "name": "Crystal Tower",
          "type": "magic_tower_cyan",
          "x": 256,
          "y": 64,
          "width": 0,
          "height": 0,
          "rotation": 0,
          "visible": true,
          "properties": [
            {
              "name": "sprite_id",
              "type": "int",
              "value": 1
            },
            {
              "name": "team",
              "type": "string",
              "value": "neutral"
            }
          ]
        },
        {
          "id": 3,
          "name": "Sky Ruins",
          "type": "sky_ruins_arch",
          "x": 368,
          "y": 96,
          "width": 0,
          "height": 0,
          "rotation": 0,
          "visible": true,
          "properties": [
            {
              "name": "sprite_id",
              "type": "int",
              "value": 2
            },
            {
              "name": "team",
              "type": "string",
              "value": "neutral"
            }
          ]
        },
        {
          "id": 4,
          "name": "Lower Shrine",
          "type": "crystal_shrine",
          "x": 80,
          "y": 192,
          "width": 0,
          "height": 0,
          "rotation": 0,
          "visible": true,
          "properties": [
            {
              "name": "sprite_id",
              "type": "int",
              "value": 3
            },
            {
              "name": "team",
              "type": "string",
              "value": "neutral"
            }
          ]
        },
        {
          "id": 5,
          "name": "East Fort",
          "type": "fortress_gate_red",
          "x": 400,
          "y": 160,
          "width": 0,
          "height": 0,
          "rotation": 0,
          "visible": true,
          "properties": [
            {
              "name": "sprite_id",
              "type": "int",
              "value": 4
            },
            {
              "name": "team",
              "type": "string",
              "value": "red"
            }
          ]
        },
        {
          "id": 6,
          "name": "Blue Dragoon",
          "type": "blue_dragoon",
          "x": 224,
          "y": 144,
          "width": 0,
          "height": 0,
          "rotation": 0,
          "visible": true,
          "properties": [
            {
              "name": "sprite_id",
              "type": "int",
              "value": 7
            },
            {
              "name": "team",
              "type": "string",
              "value": "blue"
            }
          ]
        },
        {
          "id": 7,
          "name": "Blue Sky Rider",
          "type": "blue_sky_rider",
          "x": 250,
          "y": 128,
          "width": 0,
          "height": 0,
          "rotation": 0,
          "visible": true,
          "properties": [
            {
              "name": "sprite_id",
              "type": "int",
              "value": 8
            },
            {
              "name": "team",
              "type": "string",
              "value": "blue"
            }
          ]
        },
        {
          "id": 8,
          "name": "Blue Mage",
          "type": "blue_mage",
          "x": 192,
          "y": 144,
          "width": 0,
          "height": 0,
          "rotation": 0,
          "visible": true,
          "properties": [
            {
              "name": "sprite_id",
              "type": "int",
              "value": 9
            },
            {
              "name": "team",
              "type": "string",
              "value": "blue"
            }
          ]
        },
        {
          "id": 9,
          "name": "Blue Swordsman",
          "type": "blue_swordsman",
          "x": 208,
          "y": 160,
          "width": 0,
          "height": 0,
          "rotation": 0,
          "visible": true,
          "properties": [
            {
              "name": "sprite_id",
              "type": "int",
              "value": 10
            },
            {
              "name": "team",
              "type": "string",
              "value": "blue"
            }
          ]
        },
        {
          "id": 10,
          "name": "Red Lancer",
          "type": "red_lancer",
          "x": 304,
          "y": 128,
          "width": 0,
          "height": 0,
          "rotation": 0,
          "visible": true,
          "properties": [
            {
              "name": "sprite_id",
              "type": "int",
              "value": 12
            },
            {
              "name": "team",
              "type": "string",
              "value": "red"
            }
          ]
        },
        {
          "id": 11,
          "name": "Red Soldier",
          "type": "red_soldier",
          "x": 384,
          "y": 112,
          "width": 0,
          "height": 0,
          "rotation": 0,
          "visible": true,
          "properties": [
            {
              "name": "sprite_id",
              "type": "int",
              "value": 11
            },
            {
              "name": "team",
              "type": "string",
              "value": "red"
            }
          ]
        },
        {
          "id": 12,
          "name": "Red Banner Guard",
          "type": "red_banner_guard",
          "x": 432,
          "y": 240,
          "width": 0,
          "height": 0,
          "rotation": 0,
          "visible": true,
          "properties": [
            {
              "name": "sprite_id",
              "type": "int",
              "value": 13
            },
            {
              "name": "team",
              "type": "string",
              "value": "red"
            }
          ]
        }
      ]
    }
  ]
}