{
  "type": "map",
  "tiledversion": "1.10.2",
  "version": "1.10",
  "orientation": "orthogonal",
  "renderorder": "right-down",
  "width": 24,
  "height": 12,
  "tilewidth": 64,
  "tileheight": 64,
  "infinite": false,
  "nextlayerid": 5,
  "nextobjectid": 15,
  "tilesets": [
    {
      "firstgid": 1,
      "source": "../terrain/sky_islands_reusable_terrain_tileset_64.tsj"
    },
    {
      "firstgid": 55,
      "source": "../sprites/sky_islands_sprites_sheet_192.tsj"
    }
  ],
  "layers": [
    {
      "id": 1,
      "name": "terrain_base",
      "type": "tilelayer",
      "width": 24,
      "height": 12,
      "data": [
        1,
        22,
        14,
        14,
        14,
        16,
        1,
        1,
        1,
        1,
        1,
        1,
        1,
        1,
        1,
        1,
        1,
        1,
        1,
        1,
        1,
        1,
        1,
        1,
        22,
        3,
        2,
        3,
        3,
        7,
        14,
        14,
        14,
        14,
        14,
        14,
        14,
        14,
        16,
        1,
        1,
        1,
        1,
        1,
        1,
        1,
        1,
        1,
        21,
        2,
        3,
        3,
        2,
        6,
        7,
        6,
        7,
        6,
        2,
        3,
        8,
        8,
        8,
        14,
        16,
        1,
        1,
        1,
        1,
        1,
        1,
        1,
        25,
        3,
        3,
        2,
        3,
        7,
        6,
        7,
        6,
        7,
        3,
        3,
        8,
        8,
        8,
        8,
        3,
        16,
        1,
        1,
        1,
        1,
        1,
        1,
        1,
        21,
        2,
        3,
        3,
        2,
        3,
        3,
        2,
        3,
        3,
        2,
        8,
        8,
        8,
        8,
        3,
        2,
        16,
        1,
        1,
        1,
        1,
        1,
        1,
        21,
        3,
        5,
        5,
        5,
        5,
        2,
        3,
        3,
        2,
        3,
        3,
        2,
        3,
        3,
        2,
        3,
        15,
        1,
        1,
        1,
        1,
        1,
        1,
        25,
        3,
        5,
        5,
        5,
        5,
        3,
        3,
        2,
        3,
        3,
        2,
        3,
        3,
        2,
        3,
        3,
        15,
        1,
        1,
        1,
        1,
        1,
        1,
        1,
        25,
        17,
        5,
        5,
        5,
        3,
        2,
        3,
        3,
        2,
        3,
        3,
        2,
        3,
        4,
        4,
        4,
        14,
        14,
        14,
        16,
        1,
        1,
        1,
        1,
        1,
        25,
        17,
        17,
        17,
        17,
        17,
        17,
        17,
        17,
        17,
        17,
        17,
        4,
        4,
        4,
        2,
        3,
        3,
        15,
        1,
        1,
        1,
        1,
        1,
        1,
        1,
        1,
        1,
        1,
        1,
        1,
        1,
        1,
        1,
        1,
        1,
        21,
        3,
        2,
        3,
        3,
        2,
        15,
        1,
        1,
        1,
        1,
        1,
        1,
        1,
        1,
        1,
        1,
        1,
        1,
        1,
        1,
        1,
        1,
        1,
        25,
        17,
        17,
        17,
        17,
        17,
        19,
        1,
        1,
        1,
        1,
        1,
        1,
        1,
        1,
        1,
        1,
        1,
        1,
        1,
        1,
        1,
        1,
        1,
        1,
        1,
        1,
        1,
        1,
        1,
        1,
        1
      ],
      "opacity": 1,
      "visible": true,
      "x": 0,
      "y": 0
    },
    {
      "id": 2,
      "name": "route_overlay",
      "type": "tilelayer",
      "width": 24,
      "height": 12,
      "data": [
        0,
        0,
        0,
        0,
        0,
        0,
        0,
        0,
        0,
        0,
        0,
        0,
        0,
        0,
        0,
        0,
        0,
        0,
        0,
        0,
        0,
        0,
        0,
        0,
        0,
        0,
        0,
        0,
        0,
        0,
        0,
        0,
        0,
        0,
        0,
        0,
        0,
        0,
        0,
        0,
        0,
        0,
        0,
        0,
        0,
        0,
        0,
        0,
        0,
        0,
        31,
        37,
        0,
        0,
        0,
        0,
        0,
        0,
        0,
        0,
        0,
        0,
        0,
        0,
        0,
        0,
        0,
        0,
        0,
        0,
        0,
        0,
        0,
        0,
        0,
        0,
        39,
        0,
        0,
        0,
        0,
        0,
        0,
        0,
        0,
        0,
        0,
        0,
        0,
        0,
        0,
        0,
        0,
        0,
        0,
        0,
        0,
        0,
        0,
        0,
        0,
        31,
        39,
        39,
        39,
        39,
        39,
        39,
        39,
        37,
        0,
        0,
        0,
        0,
        0,
        0,
        0,
        0,
        0,
        0,
        0,
        0,
        0,
        0,
        0,
        0,
        0,
        0,
        0,
        0,
        0,
        0,
        0,
        0,
        39,
        0,
        0,
        0,
        0,
        0,
        0,
        0,
        0,
        0,
        0,
        0,
        0,
        0,
        0,
        0,
        0,
        0,
        0,
        0,
        0,
        0,
        0,
        0,
        0,
        39,
        0,
        0,
        0,
        0,
        0,
        0,
        0,
        0,
        0,
        0,
        0,
        0,
        0,
        0,
        0,
        0,
        0,
        0,
        0,
        0,
        0,
        0,
        0,
        0,
        39,
        0,
        0,
        0,
        0,
        0,
        0,
        0,
        0,
        0,
        0,
        0,
        0,
        0,
        0,
        0,
        0,
        0,
        0,
        0,
        0,
        0,
        0,
        0,
        0,
        31,
        39,
        39,
        39,
        37,
        0,
        0,
        0,
        0,
        0,
        0,
        0,
        0,
        0,
        0,
        0,
        0,
        0,
        0,
        0,
        0,
        0,
        0,
        0,
        0,
        0,
        0,
        0,
        0,
        0,
        0,
        0,
        0,
        0,
        0,
        0,
        0,
        0,
        0,
        0,
        0,
        0,
        0,
        0,
        0,
        0,
        0,
        0,
        0,
        0,
        0,
        0,
        0,
        0,
        0,
        0,
        0,
        0,
        0,
        0,
        0,
        0,
        0,
        0,
        0,
        0,
        0,
        0,
        0,
        0,
        0,
        0,
        0,
        0,
        0,
        0,
        0,
        0,
        0
      ],
      "opacity": 1,
      "visible": true,
      "x": 0,
      "y": 0
    },
    {
      "id": 3,
      "name": "bridge_overlay",
      "type": "tilelayer",
      "width": 24,
      "height": 12,
      "data": [
        0,
        0,
        0,
        0,
        0,
        0,
        0,
        0,
        0,
        0,
        0,
        0,
        0,
        0,
        0,
        0,
        0,
        0,
        0,
        0,
        0,
        0,
        0,
        0,
        0,
        0,
        0,
        0,
        0,
        0,
        0,
        0,
        0,
        0,
        0,
        0,
        0,
        0,
        0,
        0,
        0,
        0,
        0,
        0,
        0,
        0,
        0,
        0,
        0,
        0,
        0,
        0,
        0,
        0,
        0,
        0,
        0,
        0,
        0,
        0,
        0,
        0,
        0,
        0,
        0,
        0,
        0,
        0,
        0,
        0,
        0,
        0,
        0,
        0,
        0,
        0,
        0,
        0,
        0,
        0,
        0,
        0,
        0,
        0,
        0,
        0,
        0,
        0,
        0,
        0,
        0,
        0,
        0,
        0,
        0,
        0,
        0,
        0,
        0,
        0,
        0,
        0,
        0,
        0,
        0,
        0,
        0,
        0,
        0,
        0,
        0,
        0,
        0,
        0,
        0,
        0,
        0,
        0,
        0,
        0,
        0,
        0,
        0,
        0,
        0,
        0,
        0,
        0,
        0,
        0,
        0,
        0,
        0,
        0,
        0,
        0,
        0,
        0,
        0,
        0,
        0,
        0,
        0,
        0,
        0,
        0,
        0,
        0,
        0,
        0,
        0,
        0,
        0,
        0,
        0,
        0,
        0,
        0,
        0,
        0,
        0,
        0,
        0,
        0,
        0,
        0,
        0,
        0,
        0,
        0,
        0,
        0,
        0,
        0,
        0,
        0,
        0,
        0,
        0,
        0,
        0,
        0,
        0,
        47,
        47,
        0,
        0,
        0,
        0,
        0,
        0,
        0,
        0,
        0,
        0,
        0,
        0,
        0,
        0,
        0,
        0,
        0,
        0,
        0,
        0,
        0,
        0,
        0,
        0,
        0,
        0,
        0,
        0,
        0,
        0,
        0,
        0,
        0,
        0,
        0,
        0,
        0,
        0,
        0,
        0,
        0,
        0,
        0,
        0,
        0,
        0,
        0,
        0,
        0,
        0,
        0,
        0,
        0,
        0,
        0,
        0,
        0,
        0,
        0,
        0,
        0,
        0,
        0,
        0,
        0,
        0,
        0,
        0,
        0,
        0,
        0,
        0,
        0,
        0,
        0,
        0,
        0,
        0,
        0,
        0,
        0,
        0,
        0,
        0,
        0,
        0,
        0,
        0,
        0,
        0,
        0,
        0,
        0,
        0,
        0,
        0,
        0,
        0,
        0,
        0,
        0,
        0,
        0
      ],
      "opacity": 1,
      "visible": true,
      "x": 0,
      "y": 0
    },
    {
      "id": 4,
      "name": "objects_and_units",
      "type": "objectgroup",
      "draworder": "topdown",
      "objects": [
        {
          "id": 1,
          "gid": 55,
          "x": 192,
          "y": 168,
          "name": "castle_northwest",
          "type": "building",
          "width": 192,
          "height": 192
        },
        {
          "id": 2,
          "gid": 56,
          "x": 640,
          "y": 172,
          "name": "arcane_tower",
          "type": "building",
          "width": 192,
          "height": 192
        },
        {
          "id": 3,
          "gid": 57,
          "x": 960,
          "y": 228,
          "name": "sky_ruins_large",
          "type": "building",
          "width": 192,
          "height": 192
        },
        {
          "id": 4,
          "gid": 58,
          "x": 128,
          "y": 434,
          "name": "crystal_shrine_round",
          "type": "building",
          "width": 192,
          "height": 192
        },
        {
          "id": 5,
          "gid": 59,
          "x": 512,
          "y": 488,
          "name": "crystal_city_ruins",
          "type": "building",
          "width": 192,
          "height": 192
        },
        {
          "id": 6,
          "gid": 60,
          "x": 1152,
          "y": 432,
          "name": "east_keep",
          "type": "building",
          "width": 192,
          "height": 192
        },
        {
          "id": 7,
          "gid": 62,
          "x": 1344,
          "y": 556,
          "name": "crystal_watchtower",
          "type": "building",
          "width": 192,
          "height": 192
        },
        {
          "id": 8,
          "gid": 65,
          "x": 704,
          "y": 348,
          "name": "blue_choco_rider",
          "type": "unit",
          "width": 192,
          "height": 192
        },
        {
          "id": 9,
          "gid": 66,
          "x": 576,
          "y": 348,
          "name": "blue_black_mage",
          "type": "unit",
          "width": 192,
          "height": 192
        },
        {
          "id": 10,
          "gid": 67,
          "x": 640,
          "y": 348,
          "name": "blue_swordsman_top",
          "type": "unit",
          "width": 192,
          "height": 192
        },
        {
          "id": 11,
          "gid": 69,
          "x": 768,
          "y": 355,
          "name": "blue_dragoon",
          "type": "unit",
          "width": 192,
          "height": 192
        },
        {
          "id": 12,
          "gid": 70,
          "x": 832,
          "y": 222,
          "name": "red_banner_knight_north",
          "type": "unit",
          "width": 192,
          "height": 192
        },
        {
          "id": 13,
          "gid": 73,
          "x": 1152,
          "y": 296,
          "name": "red_banner_knight_east",
          "type": "unit",
          "width": 192,
          "height": 192
        },
        {
          "id": 14,
          "gid": 79,
          "x": 1216,
          "y": 604,
          "name": "red_banner_guard_central_east",
          "type": "unit",
          "width": 192,
          "height": 192
        }
      ],
      "opacity": 1,
      "visible": true,
      "x": 0,
      "y": 0
    }
  ],
  "properties": [
    {
      "name": "description",
      "type": "string",
      "value": "reusable layered sample map using separated terrain/path/bridge/sprite assets"
    },
    {
      "name": "tile_size",
      "type": "int",
      "value": 64
    }
  ]
}